Extension/src/pages/assets/icons/logo.svg

<svg height="35" viewBox="0 0 160 35" width="160" xmlns="http://www.w3.org/2000/svg"><g fill="none" fill-rule="evenodd"><g fill="#232323"><path d="m125.470968 24.653125-1.21659-3.040625h-6.06083l-1.15023 3.040625h-4.114286l6.569585-15.4875h3.67189l6.503226 15.4875zm-4.202765-11.353125-1.990784 5.315625h3.937328z"/><path d="m112.309677 18.8125c0 .933338-.158523 1.7828087-.475576 2.5484375-.317052.7656288-.770504 1.4218723-1.360368 1.96875-.589865.5468777-1.301379.973436-2.134563 1.2796875-.833183.3062515-1.75852.459375-2.776036.459375-1.032264 0-1.961287-.1531235-2.787097-.459375-.825811-.3062515-1.526265-.7328098-2.101383-1.2796875s-1.0175096-1.2031212-1.3271886-1.96875c-.3096789-.7656288-.4645161-1.6150995-.4645161-2.5484375v-9.646875h3.7603687v9.340625c0 .4229188.055299.8239564.165899 1.203125.110599.3791686.280183.7182277.508755 1.0171875.228573.2989598.530874.5359366.906913.7109375s.82949.2625 1.360368.2625c.530879 0 .98433-.0874991 1.360369-.2625s.682027-.4119777.917972-.7109375c.235946-.2989598.40553-.6380189.508756-1.0171875.103227-.3791686.154839-.7802062.154839-1.203125v-9.340625h3.782488z"/><path d="m96.7889401 23.7125c-.7668241.393752-1.6626677.7145821-2.6875576.9625s-2.1419295.371875-3.3511521.371875c-1.2534625 0-2.407368-.196873-3.4617511-.590625-1.0543832-.393752-1.9612866-.9479131-2.7207374-1.6625s-1.3529932-1.5713492-1.7806451-2.5703125-.6414747-2.1109314-.6414747-3.3359375c0-1.2395895.2175094-2.362495.6525346-3.36875s1.0359408-1.8630173 1.802765-2.5703125c.7668241-.7072952 1.6663542-1.25051894 2.6986175-1.6296875 1.0322632-.37916856 2.1456161-.56875 3.3400921-.56875 1.2387159 0 2.3889348.18593564 3.4506913.5578125 1.0617564.37187686 1.9244206.871351 2.5880184 1.4984375l-2.3889401 2.690625c-.3686654-.4229188-.8552965-.7692695-1.4599078-1.0390625s-1.2903188-.4046875-2.0571429-.4046875c-.6635978 0-1.2755732.1203113-1.8359447.3609375-.5603714.2406262-1.0470025.5760395-1.4599078 1.00625s-.7336394.940622-.962212 1.53125-.3428571 1.235934-.3428571 1.9359375c0 .7145869.1032247 1.3708303.3096774 1.96875.2064526.5979197.5124404 1.111977.9179723 1.5421875.405532.4302105.9069095.7656238 1.5041475 1.00625s1.2792588.3609375 2.0460829.3609375c.4423986 0 .8626709-.0328122 1.2608295-.0984375.3981587-.0656253.7668186-.1713534 1.1059908-.3171875v-2.821875h-2.9861751v-3.01875h6.4589862z"/><path d="m159.306912 16.865625c0 1.3562568-.254375 2.5265576-.763133 3.5109375-.508759.9843799-1.17972 1.7937468-2.012903 2.428125-.833184.6343782-1.773267 1.1010402-2.820277 1.4s-2.10875.4484375-3.185253.4484375h-5.839632v-15.4875h5.662673c1.105996 0 2.19723.12760289 3.273733.3828125s2.035019.678122 2.875576 1.26875 1.518891 1.3817659 2.035023 2.3734375c.516131.9916716.774193 2.2166594.774193 3.675zm-3.937327 0c0-.8750044-.143777-1.600518-.431336-2.1765625s-.670966-1.035415-1.150231-1.378125-1.024881-.5869784-1.636866-.7328125-1.242393-.21875-1.891244-.21875h-1.880185v9.05625h1.791706c.678344 0 1.330872-.0765617 1.957603-.2296875s1.179721-.4046858 1.658986-.7546875c.479265-.3500018.862672-.8166638 1.150231-1.4.287559-.5833363.431336-1.305204.431336-2.165625z"/><path d="m80.4866359 16.865625c0 1.3562568-.2543753 2.5265576-.7631336 3.5109375s-1.1797193 1.7937468-2.0129032 2.428125-1.7732667 1.1010402-2.8202765 1.4c-1.0470099.2989598-2.1087504.4484375-3.1852535.4484375h-5.8396313v-15.4875h5.6626728c1.1059963 0 2.1972296.12760289 3.2737327.3828125s2.0350189.678122 2.8755761 1.26875c.8405571.590628 1.5188914 1.3817659 2.035023 2.3734375s.7741935 2.2166594.7741935 3.675zm-3.9373271 0c0-.8750044-.1437774-1.600518-.4313365-2.1765625-.287559-.5760445-.6709653-1.035415-1.1502304-1.378125-.479265-.34271-1.0248817-.5869784-1.6368663-.7328125-.6119847-.1458341-1.2423931-.21875-1.8912443-.21875h-1.8801843v9.05625h1.7917051c.6783444 0 1.3308724-.0765617 1.9576037-.2296875.6267312-.1531258 1.1797211-.4046858 1.6589861-.7546875.4792651-.3500018.8626714-.8166638 1.1502304-1.4.2875591-.5833363.4313365-1.305204.4313365-2.165625z"/><path d="m60.4682028 24.653125-1.2165899-3.040625h-6.0608295l-1.1502304 3.040625h-4.1142857l6.5695852-15.4875h3.6718894l6.5032258 15.4875zm-4.202765-11.353125-1.9907834 5.315625h3.9373272z"/><path d="m139.251613 24.653125-3.384332-6.146875h-1.282949v6.146875h-3.716129v-15.4875h5.97235c.752077 0 1.485711.07656173 2.200922.2296875s1.356679.41197734 1.924424.7765625c.567744.3645852 1.021196.8458303 1.360368 1.44375s.508756 1.3416622.508756 2.23125c0 1.0500052-.287555 1.9322881-.862673 2.646875s-1.371423 1.2249985-2.38894 1.53125l4.092166 6.628125zm-.154839-10.740625c0-.3645852-.077418-.6598947-.232258-.8859375-.154839-.2260428-.353916-.401041-.597235-.525s-.516127-.2078123-.818433-.2515625-.593547-.065625-.873733-.065625h-2.012903v3.609375h1.791705c.309679 0 .626727-.0255206.951152-.0765625.324426-.0510419.619354-.1421868.884793-.2734375s.482948-.3208321.652534-.56875.254378-.568748.254378-.9625z"/></g><path d="m17.1543031 0c-5.3619081 0-11.8297098 1.25180851-17.15429784 4.00712766 0 5.95074468-.07349775 20.77585104 17.15429784 30.90537234 17.2281765-10.1295213 17.1550595-24.95462766 17.1550595-30.90537234-5.3249688-2.75531915-11.7927705-4.00712766-17.1550595-4.00712766z" fill="#68bc71"/><path d="m17.1367803 34.9021919c-17.21022294-10.1292683-17.13677504-24.9463378-17.13677504-30.89506424 5.31878904-2.75231834 11.77830294-4.00439919 17.13677504-4.00712321v34.90219085z" fill="#67b279"/><path d="m16.5285819 23.2947567 10.3734917-13.88033502c-.7601484-.60488994-1.4269071-.17797112-1.7939502.15254668l-.0133931.00105935-8.6494027 8.93280849-3.2588648-3.8934714c-1.5546844-1.7832424-3.66825892-.4230346-4.1619934-.0635611z" fill="#fff"/></g></svg>

<?xml version="1.0" encoding="UTF-8"?>
<svg width="160px" height="35px" viewBox="0 0 160 35" version="1.1" xmlns="http://www.w3.org/2000/svg" xmlns:xlink="http://www.w3.org/1999/xlink">
    <!-- Generator: Sketch 44.1 (41455) - http://www.bohemiancoding.com/sketch -->
    <title>Group</title>
    <desc>Created with Sketch.</desc>
    <defs></defs>
    <g id="0" stroke="none" stroke-width="1" fill="none" fill-rule="evenodd">
        <g id="Artboard-Copy-4" transform="translate(-161.000000, -81.000000)">
            <g id="Group" transform="translate(161.000000, 81.000000)">
                <path d="M125.470968,24.653125 L124.254378,21.6125 L118.193548,21.6125 L117.043318,24.653125 L112.929032,24.653125 L119.498617,9.165625 L123.170507,9.165625 L129.673733,24.653125 L125.470968,24.653125 Z M121.268203,13.3 L119.277419,18.615625 L123.214747,18.615625 L121.268203,13.3 Z" id="Combined-Shape" fill="#232323"></path>
                <path d="M112.309677,18.8125 C112.309677,19.745838 112.151154,20.5953087 111.834101,21.3609375 C111.517049,22.1265663 111.063597,22.7828098 110.473733,23.3296875 C109.883868,23.8765652 109.172354,24.3031235 108.33917,24.609375 C107.505987,24.9156265 106.58065,25.06875 105.563134,25.06875 C104.53087,25.06875 103.601847,24.9156265 102.776037,24.609375 C101.950226,24.3031235 101.249772,23.8765652 100.674654,23.3296875 C100.099536,22.7828098 99.6571444,22.1265663 99.3474654,21.3609375 C99.0377865,20.5953087 98.8829493,19.745838 98.8829493,18.8125 L98.8829493,9.165625 L102.643318,9.165625 L102.643318,18.50625 C102.643318,18.9291688 102.698617,19.3302064 102.809217,19.709375 C102.919816,20.0885436 103.0894,20.4276027 103.317972,20.7265625 C103.546545,21.0255223 103.848846,21.2624991 104.224885,21.4375 C104.600924,21.6125009 105.054375,21.7 105.585253,21.7 C106.116132,21.7 106.569583,21.6125009 106.945622,21.4375 C107.321661,21.2624991 107.627649,21.0255223 107.863594,20.7265625 C108.09954,20.4276027 108.269124,20.0885436 108.37235,19.709375 C108.475577,19.3302064 108.527189,18.9291688 108.527189,18.50625 L108.527189,9.165625 L112.309677,9.165625 L112.309677,18.8125 Z" id="Path" fill="#232323"></path>
                <path d="M96.7889401,23.7125 C96.022116,24.106252 95.1262724,24.4270821 94.1013825,24.675 C93.0764926,24.9229179 91.959453,25.046875 90.7502304,25.046875 C89.4967679,25.046875 88.3428624,24.850002 87.2884793,24.45625 C86.2340961,24.062498 85.3271927,23.5083369 84.5677419,22.79375 C83.8082911,22.0791631 83.2147487,21.2224008 82.7870968,20.2234375 C82.3594449,19.2244742 82.1456221,18.1125061 82.1456221,16.8875 C82.1456221,15.6479105 82.3631315,14.525005 82.7981567,13.51875 C83.2331819,12.512495 83.8340975,11.6557327 84.6009217,10.9484375 C85.3677458,10.2411423 86.2672759,9.69791856 87.2995392,9.31875 C88.3318024,8.93958144 89.4451553,8.75 90.6396313,8.75 C91.8783472,8.75 93.0285661,8.93593564 94.0903226,9.3078125 C95.152079,9.67968936 96.0147432,10.1791635 96.678341,10.80625 L94.2894009,13.496875 C93.9207355,13.0739562 93.4341044,12.7276055 92.8294931,12.4578125 C92.2248818,12.1880195 91.5391743,12.053125 90.7723502,12.053125 C90.1087524,12.053125 89.496777,12.1734363 88.9364055,12.4140625 C88.3760341,12.6546887 87.889403,12.990102 87.4764977,13.4203125 C87.0635924,13.850523 86.7428583,14.3609345 86.5142857,14.9515625 C86.2857131,15.5421905 86.1714286,16.1874965 86.1714286,16.8875 C86.1714286,17.6020869 86.2746533,18.2583303 86.481106,18.85625 C86.6875586,19.4541697 86.9935464,19.968227 87.3990783,20.3984375 C87.8046103,20.828648 88.3059878,21.1640613 88.9032258,21.4046875 C89.5004638,21.6453137 90.1824846,21.765625 90.9493087,21.765625 C91.3917073,21.765625 91.8119796,21.7328128 92.2101382,21.6671875 C92.6082969,21.6015622 92.9769568,21.4958341 93.316129,21.35 L93.316129,18.528125 L90.3299539,18.528125 L90.3299539,15.509375 L96.7889401,15.509375 L96.7889401,23.7125 Z" id="Path" fill="#232323"></path>
                <path d="M159.306912,16.865625 C159.306912,18.2218818 159.052537,19.3921826 158.543779,20.3765625 C158.03502,21.3609424 157.364059,22.1703093 156.530876,22.8046875 C155.697692,23.4390657 154.757609,23.9057277 153.710599,24.2046875 C152.663589,24.5036473 151.601849,24.653125 150.525346,24.653125 L144.685714,24.653125 L144.685714,9.165625 L150.348387,9.165625 C151.454383,9.165625 152.545617,9.29322789 153.62212,9.5484375 C154.698623,9.80364711 155.657139,10.2265595 156.497696,10.8171875 C157.338253,11.4078155 158.016587,12.1989534 158.532719,13.190625 C159.04885,14.1822966 159.306912,15.4072844 159.306912,16.865625 Z M155.369585,16.865625 C155.369585,15.9906206 155.225808,15.265107 154.938249,14.6890625 C154.65069,14.113018 154.267283,13.6536475 153.788018,13.3109375 C153.308753,12.9682275 152.763137,12.7239591 152.151152,12.578125 C151.539167,12.4322909 150.908759,12.359375 150.259908,12.359375 L148.379723,12.359375 L148.379723,21.415625 L150.171429,21.415625 C150.849773,21.415625 151.502301,21.3390633 152.129032,21.1859375 C152.755763,21.0328117 153.308753,20.7812517 153.788018,20.43125 C154.267283,20.0812482 154.65069,19.6145862 154.938249,19.03125 C155.225808,18.4479137 155.369585,17.726046 155.369585,16.865625 Z" id="Combined-Shape" fill="#232323"></path>
                <path d="M80.4866359,16.865625 C80.4866359,18.2218818 80.2322606,19.3921826 79.7235023,20.3765625 C79.214744,21.3609424 78.543783,22.1703093 77.7105991,22.8046875 C76.8774152,23.4390657 75.9373324,23.9057277 74.8903226,24.2046875 C73.8433127,24.5036473 72.7815722,24.653125 71.7050691,24.653125 L65.8654378,24.653125 L65.8654378,9.165625 L71.5281106,9.165625 C72.6341069,9.165625 73.7253402,9.29322789 74.8018433,9.5484375 C75.8783464,9.80364711 76.8368622,10.2265595 77.6774194,10.8171875 C78.5179765,11.4078155 79.1963108,12.1989534 79.7124424,13.190625 C80.228574,14.1822966 80.4866359,15.4072844 80.4866359,16.865625 Z M76.5493088,16.865625 C76.5493088,15.9906206 76.4055314,15.265107 76.1179723,14.6890625 C75.8304133,14.113018 75.447007,13.6536475 74.9677419,13.3109375 C74.4884769,12.9682275 73.9428602,12.7239591 73.3308756,12.578125 C72.7188909,12.4322909 72.0884825,12.359375 71.4396313,12.359375 L69.559447,12.359375 L69.559447,21.415625 L71.3511521,21.415625 C72.0294965,21.415625 72.6820245,21.3390633 73.3087558,21.1859375 C73.935487,21.0328117 74.4884769,20.7812517 74.9677419,20.43125 C75.447007,20.0812482 75.8304133,19.6145862 76.1179723,19.03125 C76.4055314,18.4479137 76.5493088,17.726046 76.5493088,16.865625 Z" id="Combined-Shape" fill="#232323"></path>
                <path d="M60.4682028,24.653125 L59.2516129,21.6125 L53.1907834,21.6125 L52.040553,24.653125 L47.9262673,24.653125 L54.4958525,9.165625 L58.1677419,9.165625 L64.6709677,24.653125 L60.4682028,24.653125 Z M56.2654378,13.3 L54.2746544,18.615625 L58.2119816,18.615625 L56.2654378,13.3 Z" id="Combined-Shape" fill="#232323"></path>
                <path d="M139.251613,24.653125 L135.867281,18.50625 L134.584332,18.50625 L134.584332,24.653125 L130.868203,24.653125 L130.868203,9.165625 L136.840553,9.165625 C137.59263,9.165625 138.326264,9.24218673 139.041475,9.3953125 C139.756686,9.54843827 140.398154,9.80728984 140.965899,10.171875 C141.533643,10.5364602 141.987095,11.0177053 142.326267,11.615625 C142.665439,12.2135447 142.835023,12.9572872 142.835023,13.846875 C142.835023,14.8968802 142.547468,15.7791631 141.97235,16.49375 C141.397232,17.2083369 140.600927,17.7187485 139.58341,18.025 L143.675576,24.653125 L139.251613,24.653125 Z M139.096774,13.9125 C139.096774,13.5479148 139.019356,13.2526053 138.864516,13.0265625 C138.709677,12.8005197 138.5106,12.6255215 138.267281,12.5015625 C138.023962,12.3776035 137.751154,12.2937502 137.448848,12.25 C137.146542,12.2062498 136.855301,12.184375 136.575115,12.184375 L134.562212,12.184375 L134.562212,15.79375 L136.353917,15.79375 C136.663596,15.79375 136.980644,15.7682294 137.305069,15.7171875 C137.629495,15.6661456 137.924423,15.5750007 138.189862,15.44375 C138.455301,15.3124993 138.67281,15.1229179 138.842396,14.875 C139.011982,14.6270821 139.096774,14.306252 139.096774,13.9125 Z" id="Combined-Shape" fill="#232323"></path>
                <g id="Group-9">
                    <g id="Group-8">
                        <g id="Group-7">
                            <path d="M17.1543031,0 C11.792395,0 5.3245933,1.25180851 5.26069203e-06,4.00712766 C5.26069203e-06,9.95787234 -0.0734924858,24.7829787 17.1543031,34.9125 C34.3824796,24.7829787 34.3093626,9.95787234 34.3093626,4.00712766 C28.9843938,1.25180851 22.5165921,0 17.1543031,0 L17.1543031,0 Z" id="Path" fill="#68BC71"></path>
                            <path d="M17.1367803,34.9021919 C-0.0734426396,24.7729236 5.26069203e-06,9.9558541 5.26069203e-06,4.00712766 C5.3187943,1.25480932 11.7783082,0.00272846698 17.1367803,4.45476256e-06 L17.1367803,34.9021953 Z" id="Combined-Shape" fill="#67B279"></path>
                        </g>
                        <path d="M16.5285819,23.2947567 L26.9020736,9.41442168 C26.1419252,8.80953174 25.4751665,9.23645056 25.1081234,9.56696836 L25.0947303,9.56802771 L16.4453276,18.5008362 L13.1864628,14.6073648 C11.6317784,12.8241224 9.51820388,14.1843302 9.0244694,14.5438037 L16.5285819,23.2947567" id="Fill-11" fill="#FFFFFF"></path>
                    </g>
                </g>
            </g>
        </g>
    </g>
</svg>
